X:1
T:Salvum fac regem Domine
T:Moritz Hauptmann
T:Salvum fac populum tuum
T:Arr. des "Salvum fac regem", Op. 9, als "Gebet für das Volk"
T:CPDL - Creative Commons Attribution Non Commercial 3.0
T:CPDL - Creative Commons Attribution Non Commercial 3.0
T:CPDL - Creative Commons Attribution Non Commercial 3.0
T:CPDL - Creative Commons Attribution Non Commercial 3.0
C:Moritz Hauptmann
Z:CPDL - Creative Commons Attribution Non Commercial 3.0
%%score [ ( 1 2 ) 3 4 5 ]
L:1/8
Q:1/2=50
M:2/2
K:Eb
V:1 treble nm="Sopran\nAlt"
V:2 treble 
V:3 treble nm="Alt"
V:4 treble-8 nm="Tenor"
V:5 bass nm="Bass"
V:1
!mf!"^Andante (  )" E4 E2 E2 |!<(! G4 G2 G2!<)! | B6 B2 | G4 B2 e2 | d4 A2 A2 | %5
w: Sal- vum fac|po- pu- lum|tu- um,|sal- vum fac|po- pu- lum,|
!<(! (G4 c2)!<)! c2 | F4!p! B4- | B4 A4 | G4 G2 G2 |"^cresc." B4 e2 e2 |!f! g6 f2 | %11
w: Do- * mi-|ne, sal-|\- vum,|sal- vum fac|po- pu- lum,|Do- mi-|
 e4!<(! !^!e4-!<)! | e2 e2 (c2 A2) | (G4 F4) | E6 z2 |!mf! B8- | B4 G4 | B4 B2 B2 | B4 G2 G2 | %19
w: ne, po-|* pu- lum *|tu- *|um.|Sal-|* vum,|sal- vum fac|po- pu- lum,|
 (B4"^cresc." =B4) | c4 G4- | G2 (G2 A2)"^dim." F2 | =E4 z4 |!mf! c6 c2 | c4"^cresc." A4 | %25
w: sal- *|vum fac|_ Do- * mi-|ne,|sal- vum,|sal- vum,|
!<(! c4 f2 d2!<)! |!f!!>(! c4 =B2 B2!>)! |!mf! G4!mf! (G4- | G2 e2 d2 c2) | %29
w: sal- vum fac|po- pu- lum,|fac sal-||
 B4[Q:1/4=96]"^poco ritard."!<(! (c2 B2)!<)! |!>(! B6!>)! A2 |!p![Q:1/4=100]"^a tempo" G4 G2 G2 | %32
w: vum, fac _|Do- mi-|ne, be- ne-|
 G3 G!<(! G2 A2!<)! |!>(! B8!>)! | G2"^dolce" B2 e2 B2 | G2 G2 z2 G2 | G3 G!<(! G2 =A2!<)! | B8 | %38
w: dic he- re- di-|ta-|ti, he- re- di-|ta- ti, he-|re- di- ta- ti|tu-|
 B4!mf! E2 F2 | G3 G G4- | G2"^cresc." G2 G2 A2 | B8 | E4 A4- | A4 G4 |"^dim." (F6 G2) | G4 z4 | %46
w: ae, be- ne-|dic he- re-|* di- ta- ti|tu-|ae, hal-|* le-|lu- *|ja;|
 z4!mf! G2 B2 |"^cresc." e3"^he-re   -" e e4- | e2 e2 e2 f2 |!f! (g6 f2) | e4!<(! !^!e4-!<)! | %51
w: be- ne-|dic * *|* di- ta- ti|tu- *|ae, hal-|
 (e4 c2) A2 | (G4 F4) | E4 z4 |"^Sopran"!mf!!<(! B8-!<)! |!>(! B4!>)! G4 |!<(! G8- | G4!<)! E4 | %58
w: * * le-|lu- *|ja.|A-|* men,|a-|* men,|
!p! E4 (E2 e2) | e8- |!<(! e8!<)! |!>(! !fermata!e8!>)! |] %62
w: a- men, _|a-||men.|
V:2
 B,4 B,2 B,2 | E4 E2 E2 | (E4 D2) D2 | E4 E2 E2 | A4 F2 F2 | (E4 _G2) G2 | F4 z2!p! D2 | E4 F4 | %8
w: ||||||* fac|sal- vum,|
 E4 E2 E2 | F4 E2 E2 | (D4 G2) G2 | G4 (G4 | E2) E2 (E2 F2) | (E4 D4) | B,6 x2 | x4!mf! (F4 | %16
w: |||||||Sal-|
 G4) E4 | z4 F4 | B,4 E2 E2 | (G4 F4) | =E4 G4 | !>!=B,6 B,2 | C4 x4 | z4!mf! (G4 | C4) F4 | %25
w: * vum,|fac|||* fac|Do- mi-|ne,|sal-|\- vum,|
 A4 F2 A2 | A4 G2 G2 | z4 F4 | (E8 | F4) G4 | D6 z2 | E4 E2 E2 | E3 E E2 E2 | (E4 D4) | %34
w: ||fac|Do-|* mi-|ne,|et * *|||
 E2 G2 B2 G2 | E2 E2 x2 E2 | E3 G G2 F2 | (F6 ^F2) | G4 G,2 B,2 | E3 E E4- | E2 E2 E2 E2 | E8 | %42
w: ||||||||
 E4 (F2 E2 | D4) E4 | (E4 D4) | E4 x4 | x4 E2 F2 | G2 c2 e2 d2 | c2 c2 (c4 | =B4 d4) | G4 (G4 | %51
w: |||||* he- re- di-|ta- ti tu-||ae, *|
 E6) F2 | (E4 D4) | E4 x4 | x8 | x8 | x8 | x8 | x8 | x8 | x8 | x8 |] %62
w: |||||||||||
V:3
 z8 | z8 | z8 | z8 | z8 |!<(! z8!<)! | z8 | z8 | z8 | z8 | z8 | z8 | z8 | z8 | z8 | z8 | z8 | z8 | %18
w: ||||||||||||||||||
 z8 | z8 | z8 | z8 | z8 | z8 | z8 | z8 |!>(! z8!>)! | z8 | z8 | z8 |!>(! z8!>)! | z8 | z8 | %33
w: |||||||||||||||
!>(! z8!>)! | z8 | z8 | z8 | z8 | z8 | z8 | z8 | z8 | z8 | z8 | z8 | z8 | z8 | z8 | z8 | z8 | z8 | %51
w: ||||||||||||||||||
 z8 | z8 | z8 |"^Alt" z4!mf!!<(! (F4!<)! |!>(! B,4)!>)! E4 | z4!<(! (F4 | E4)!<)! C4 | z4!p! (B4- | %59
w: |||A-|* men,|a-|* men,|a-|
 B4 A2 G2 |!<(! A4 G2 F2!<)! |!>(! !fermata!G8)!>)! |] %62
w: ||men.|
V:4
!mf! G4 G2 G2 |!<(! E4 E2 E2!<)! | F6 B2 | B4 B2 B2 | B4 B2 B2 |!<(! (B4 e2)!<)! e2 | d4 z4 | %7
w: Sal- vum fac|po- pu- lum|tu- um,|sal- vum fac|po- pu- lum,|Do- * mi-|ne,|
 z4!p! B4- | B4 B2 B2 |"^cresc." F4 G2 c2 |!f! =B6 d2 | c4!<(! (!^!_d4!<)! | c2) c2 (A2 c2) | %13
w: sal-|* vum fac|po- pu- lum,|Do- mi-|ne, po-|* pu- lum *|
 (B6 A2) | G6 z2 | z4!mf! (A4 | G4) B4 | z4 A4 | G4 B2 B2 | G4"^cresc." G2 G2 | G2 G2 =E4 | %21
w: tu- *|um.|Sal-|* vum|fac|po- pu- lum,|sal- vum fac|po- pu- lum,|
 !>!F6"^dim." G2 | G4 z4 | z4!mf! (B4 | A4)"^cresc." c4 |!<(! A4 (A2 F2)!<)! |!f!!>(! d8!>)! | %27
w: Do- mi-|ne,|sal-|* vum,|sal- vum _|fac,|
 z4!mf! d4 | (G4 !^!A4- | A4)!<(! G4!<)! |!>(! F6!>)! z2 |!p! G4 G2 G2 | c2 G2!<(! E2 F2!<)! | %33
w: fac|Do- *|* mi-|ne,|et be- ne-|dic he- re- di-|
!>(! (F6 B2)!>)! | B4 z4 | z2"^dolce" G2 B2 G2 | E2 E2!<(! (e4-!<)! | e4 d4) | e4 z4 | %39
w: ta- *|ti,|he- re- di-|ta- ti tu-||ae,|
 z4!mf! G2 B2 | e2"^cresc." e2 d2 c2 | (B4 _d4) | c4 (c4 | F4) (G2 A2) |"^dim." B8 | B4!mf! G2 B2 | %46
w: be- ne-|dic he- re- di-|ta- *|ti, hal-|* le- *|lu-|ja; be- ne-|
 e3 e!<(! e2 d2!<)! |"^cresc." c4 c2 B2 | A2 c2 f2 c2 |!f! (d4 =B4) | c4!<(! (!^!_d4!<)! | %51
w: dic he- re- di-|ta- ti, he-|re- di- ta- ti|tu- *|ae, hal-|
 c4 A2) c2 | (B6 A2) | G4 z4 | z4!mf!!<(! (A4!<)! |!>(! G4)!>)! B4 | z4!<(! (d4 | G3 A)!<)! G4 | %58
w: * * le-|lu- *|ja.|A-|* men,|a-|* * men,|
 z4!p! _d4 | c4 (c4- |!<(! c4 B2 A2)!<)! |!>(! !fermata!B8!>)! |] %62
w: a-|men, a-||men.|
V:5
!mf! E,4 E,2 E,2 |!<(! C,4 C,2 C,2!<)! | B,,6 B,,2 | E,4 G,2 G,2 | F,4 D,2 D,2 | %5
w: |||||
!<(! (E,4 =A,,2)!<)! A,,2 | B,,4 z2!p! B,,2 | C,4 D,4 | E,4 E,2 E,2 |"^cresc." D,4 C,2 C,2 | %10
w: |* fac|sal- vum,|sal- vum *||
!f! G,,6 G,,2 | C,4!<(! (!^!_B,,4!<)! | A,,2) A,,2 (A,,2 F,,2) | B,,8 | E,6 z2 | z4!mf! (D,4 | %16
w: ||||||
 E,4) G,4 | z4 D,4 | E,4 G,2 G,2 | (E,4"^cresc." _D,4) | C,4 C,4 | !>!_D,6"^dim." D,2 | C,4 z4 | %23
w: |||sal- *|vum fac|Do- mi-|ne,|
 z4!mf! (=E,4 | F,4)"^cresc." A,4 |!<(! F,4 D,4!<)! |!f!!>(! G,,8!>)! | z4!mf! =B,,4 | (C,8 | %29
w: ||||||
 D,4)!<(! E,4!<)! |!>(! _B,,6!>)! z2 |!p! E,4 E,2 E,2 | C,3 C,!<(! C,2 C,2!<)! |!>(! B,,8!>)! | %34
w: |||||
 E,4 z4 | z2"^dolce" E,2 G,2 E,2 | C,2 C,2!<(! (C4!<)! | B,8) | E,4 z4 | z4!mf! E,2 D,2 | %40
w: ||||||
 C,2"^cresc." C2 B,2 A,2 | (G,4 G,,4) | A,,4 F,,4 | B,,8- |"^dim." B,,4 B,,4 | E,4 z4 | z8 | %47
w: ||* hal-|le-|* lu-|ja;||
 z4!mf! C,2 E,2 |"^cresc." A,3 A, A,2 A,2 |!f! G,8 | C4!<(! (!^!_B,4!<)! | A,6) F,2 | (B,4 B,,4) | %53
w: be- ne-|dic he- re- di-|ta-|ti, *|||
 E,4 z4 | z4!mf!!<(! (D,4!<)! |!>(! E,4)!>)! G,4 | z4!<(! (=B,,4 | C,4)!<)! E,4 | z4!p! G,4 | %59
w: ||||||
 A,4 (A,,4- |!<(! A,,4 C,4)!<)! |!>(! !fermata![E,,E,]8!>)! |] %62
w: |||

